X:318
T: AN DER SAALE FERNEM STRANDE
N: F0547
O: Europa, Mitteleuropa, Deutschland
R: Studenten - Lied, Abschied
M: 3/4
L: 1/16
K: G
G3A | B4B4A2G2 | A3BA4
G2A2 | B3cd4F4 | G4z4
e3d | d3^c=c2D2F2A2 | G3BB4
e3d | d3^c=c2D2F2A2 | G3BB4
G3A | B3dd4c3F | G8

